lib/brands/logos/oracle.svg

<svg xmlns="http://www.w3.org/2000/svg" fill="none" aria-hidden="true" viewBox="0 0 278 42"><g id="Oracle"><path id="Vector" fill="#EA1B22" d="M120.745 26.0831H138.408L129.068 11.0568L111.927 38.225H104.125L124.975 5.59018C125.882 4.2716 127.393 3.47498 129.068 3.47498C130.689 3.47498 132.2 4.24414 133.079 5.53524L154.011 38.225H146.21L142.529 32.154H124.645L120.745 26.0831ZM201.782 32.154V3.80462H195.162V34.9285C195.162 35.7801 195.492 36.6042 196.123 37.236C196.755 37.8679 197.607 38.225 198.541 38.225H228.731L232.631 32.154H201.782ZM92.2579 27.072C98.6861 27.072 103.905 21.8801 103.905 15.452C103.905 9.02399 98.6861 3.80462 92.2579 3.80462H63.2958V38.225H69.9135V9.87557H91.8184C94.8952 9.87557 97.3675 12.3754 97.3675 15.452C97.3675 18.5287 94.8952 21.0285 91.8184 21.0285L73.1551 21.0011L92.9171 38.225H102.532L89.2363 27.072H92.2579ZM22.5574 38.225C13.0553 38.225 5.34436 30.5333 5.34436 21.0285C5.34436 11.5238 13.0553 3.80462 22.5574 3.80462H42.564C52.0687 3.80462 59.7742 11.5238 59.7742 21.0285C59.7742 30.5333 52.0687 38.225 42.564 38.225H22.5574ZM42.1189 32.154C48.2752 32.154 53.261 27.1819 53.261 21.0285C53.261 14.8752 48.2752 9.87557 42.1189 9.87557H22.9996C16.8463 9.87557 11.8575 14.8752 11.8575 21.0285C11.8575 27.1819 16.8463 32.154 22.9996 32.154H42.1189ZM167.829 38.225C158.324 38.225 150.605 30.5333 150.605 21.0285C150.605 11.5238 158.324 3.80462 167.829 3.80462H191.591L187.717 9.87557H168.268C162.115 9.87557 157.116 14.8752 157.116 21.0285C157.116 27.1819 162.115 32.154 168.268 32.154H192.14L188.239 38.225H167.829ZM248.784 32.154C243.702 32.154 239.389 28.7477 238.071 24.0503H266.365L270.266 17.9793H238.071C239.389 13.3094 243.702 9.87557 248.784 9.87557H268.206L272.134 3.80462H248.345C238.84 3.80462 231.121 11.5238 231.121 21.0285C231.121 30.5333 238.84 38.225 248.345 38.225H268.755L272.656 32.154H248.784Z"/></g></svg>

<svg xmlns="http://www.w3.org/2000/svg" fill="none" aria-hidden="true" viewBox="0 0 278 42"><path fill="#EA1B22" d="M120.745 26.083h17.663l-9.34-15.026-17.142 27.168h-7.801l20.85-32.635c.907-1.318 2.417-2.115 4.093-2.115 1.621 0 3.132.77 4.011 2.06l20.932 32.69h-7.801l-3.681-6.071h-17.884l-3.9-6.07Zm81.037 6.071V3.804h-6.62V34.93c0 .851.33 1.675.961 2.307a3.384 3.384 0 0 0 2.418.989h30.19l3.9-6.071h-30.849ZM92.258 27.072c6.428 0 11.647-5.192 11.647-11.62 0-6.428-5.219-11.647-11.647-11.647H63.296v34.42h6.617V9.875h21.905c3.077 0 5.55 2.5 5.55 5.577s-2.473 5.577-5.55 5.577L73.155 21l19.762 17.224h9.615L89.236 27.072h3.022Zm-69.7 11.153c-9.503 0-17.214-7.692-17.214-17.197 0-9.504 7.711-17.223 17.213-17.223h20.007c9.505 0 17.21 7.719 17.21 17.224 0 9.504-7.705 17.196-17.21 17.196H22.557Zm19.56-6.071c6.157 0 11.143-4.972 11.143-11.126 0-6.153-4.986-11.152-11.142-11.152h-19.12c-6.153 0-11.142 5-11.142 11.153 0 6.153 4.99 11.125 11.143 11.125h19.119Zm125.711 6.071c-9.505 0-17.224-7.692-17.224-17.197 0-9.504 7.719-17.223 17.224-17.223h23.762l-3.874 6.07h-19.449c-6.153 0-11.153 5-11.153 11.154 0 6.153 5 11.125 11.153 11.125h23.872l-3.901 6.071h-20.41Zm80.955-6.071a11.126 11.126 0 0 1-10.714-8.104h28.295l3.901-6.07H238.07c1.319-4.67 5.632-8.104 10.714-8.104h19.422l3.928-6.071h-23.79c-9.504 0-17.223 7.719-17.223 17.224 0 9.504 7.719 17.196 17.223 17.196h20.411l3.901-6.071h-23.872Z"/></svg>
